icons/core/eye-slash.svg

<svg width="32" height="32" viewBox="0 0 32 32" xmlns="http://www.w3.org/2000/svg"><path fill-rule="evenodd" clip-rule="evenodd" d="M23.6134 25.0276L28.7929 30.2071L30.2071 28.7929L3.20711 1.79291L1.79289 3.20712L6.68745 8.10168C6.08726 8.56008 5.53981 9.04611 5.04303 9.54288C2.66817 11.9177 1.42666 14.5582 1.05146 15.6838L0.946045 16L1.05145 16.3162C1.42665 17.4418 2.66816 20.0822 5.04303 22.4571C7.43941 24.8535 11.0152 27 16.0001 27C19.0467 27 21.567 26.1982 23.6134 25.0276ZM22.1394 23.5536L19.4766 20.8908C18.4958 21.5892 17.2959 22 16.0001 22C12.6864 22 10.0001 19.3137 10.0001 16C10.0001 14.7042 10.4109 13.5044 11.1093 12.5236L8.11584 9.53007C7.50558 9.97774 6.9539 10.4604 6.45725 10.9571C4.5514 12.8629 3.47661 14.9574 3.06487 16C3.47661 17.0426 4.55139 19.137 6.45724 21.0429C8.56086 23.1465 11.6517 25 16.0001 25C18.4207 25 20.4515 24.4257 22.1394 23.5536ZM12.5539 13.9681C12.202 14.5636 12.0001 15.2582 12.0001 16C12.0001 18.2091 13.791 20 16.0001 20C16.7419 20 17.4365 19.7981 18.032 19.4462L12.5539 13.9681ZM14.9734 10.0875L17.0161 12.1301C18.4088 12.4948 19.5054 13.5913 19.87 14.984L21.9126 17.0267C21.9702 16.6931 22.0001 16.35 22.0001 16C22.0001 12.6863 19.3138 9.99999 16.0001 9.99999C15.6501 9.99999 15.3071 10.03 14.9734 10.0875ZM28.9354 16C28.5376 17.0072 27.5211 18.9961 25.7342 20.8482L27.1486 22.2627C29.399 19.9396 30.5838 17.4112 30.9488 16.3162L31.0542 16L30.9488 15.6838C30.5736 14.5582 29.3321 11.9177 26.9572 9.54288C24.5609 7.14649 20.985 4.99998 16.0001 4.99999C14.0422 4.99999 12.3016 5.33114 10.7645 5.87853L12.3592 7.47324C13.4606 7.17298 14.6717 6.99999 16.0001 6.99999C20.3486 6.99998 23.4394 8.85347 25.543 10.9571C27.4489 12.8629 28.5237 14.9573 28.9354 16Z"/></svg>

<svg viewBox="0 0 32 32" xmlns="http://www.w3.org/2000/svg"><path fill-rule="evenodd" d="M23.613 25.028l5.18 5.18 1.414-1.415-27-27-1.414 1.414 4.894 4.895c-.6.458-1.147.944-1.644 1.44-2.375 2.376-3.616 5.016-3.992 6.142L.946 16l.105.316c.376 1.126 1.617 3.766 3.992 6.141C7.439 24.853 11.015 27 16 27c3.047 0 5.567-.802 7.613-1.972zm-1.474-1.474l-2.662-2.663a6 6 0 01-8.367-8.367L8.115 9.53c-.61.448-1.162.93-1.659 1.427-1.906 1.906-2.98 4-3.392 5.043.412 1.043 1.486 3.137 3.392 5.043C8.561 23.147 11.652 25 16 25c2.42 0 4.451-.574 6.14-1.446zm-9.585-9.586a4 4 0 005.478 5.478l-5.478-5.478zm2.42-3.88l2.042 2.042a4.007 4.007 0 012.854 2.854l2.043 2.043a6 6 0 00-6.94-6.94zM28.934 16c-.397 1.007-1.414 2.996-3.2 4.848l1.414 1.415c2.25-2.323 3.435-4.852 3.8-5.947l.105-.316-.105-.316c-.375-1.126-1.617-3.766-3.992-6.141C24.561 7.146 20.985 5 16 5c-1.958 0-3.698.331-5.236.879l1.595 1.594C13.461 7.173 14.672 7 16 7c4.349 0 7.44 1.853 9.543 3.957 1.906 1.906 2.98 4 3.392 5.043z"/></svg>
